X:1
T:Festgesang
T:Festgesang
T:Alfred George Wathall, circa 1905
T:Public Domain Courtesy of the Cyber Hymnal™
C:Alfred George Wathall, circa 1905
Z:Public Domain
Z:Courtesy of the Cyber Hymnal™
%%score ( 1 2 ) ( 3 4 )
L:1/8
Q:1/4=110
M:4/4
K:Db
V:1 treble 
V:2 treble 
V:3 bass 
V:4 bass 
V:1
 [DF]2 | [DF]3 [CE] [DF]2 [EG]2 | [FA]2 [Gd]2 [FA]3 [DF] | D3 D [DE]2 [CG]2 | [EG]4 [DF]2 [DF]2 | %5
 [DF]3 [CE] [DF]2 [EG]2 | [FA]2 [Fd]2 [Fc]3 [F=A] | [Fc]3 [F=A] [=DF]2 [E=G]2 | [D=G]4 F2 F2 | %9
 F3 F F2 F2 | F3 F F2 F2 | [FB]3 [FB] [Fd]2 (cB) | [Fc]6 F2 | F3 F F2 F2 | F3 F F2 F2 | %15
 [GB]3 [GB] [Gd]2 (cB) | [Ge]8 | [Gd]2 [GB]>[GA] [FA]2 [DF][FA] | [Gd]4 [FA]3 [DF] | %19
 D2 D2 [CE]3 [CA] | [DA]6 z2 | [Ad]4 [Ad]2 [Ad]2 | [=Gd]4 [GB]3 [Gd] | e8 | [Fd]8 |] %25
V:2
 x2 | x8 | x8 | x8 | x8 | x8 | x8 | x8 | x4 F2 F2 | F3 F F2 F2 | F3 F F2 F2 | x6 F2 | x6 F2 | %13
 F3 F F2 F2 | F3 F F2 F2 | x6 G2 | x8 | x8 | x8 | x8 | x8 | x8 | x8 | G4 A2 G2 | x8 |] %25
V:3
 [D,A,]2 | [D,A,]3 [D,A,] [D,A,]2 [D,A,]2 | [D,A,]2 (B,C) [D,D]3 [D,F,] | %3
 [B,,F,]3 [B,,F,] [A,,G,]2 (E,A,) | [D,A,]6 [D,A,]2 | [D,A,]3 [D,A,] [D,A,]2 [D,A,]2 | %6
 [D,A,]2 [B,,B,]2 [C,=A,]3 [C,A,] | [C,=A,]3 [C,A,] [C,B,]2 [C,B,]2 | B,4 =A,2 x2 | %9
 [B,D]3 [B,D] [A,C]2 [A,C]2 | [=G,B,]2 [G,B,]2 [A,C]2 F,2 | [B,D]3 [B,D] [=G,B,]2 ([A,C][B,D]) | %12
 [A,C]6 F,2 | [B,D]3 [B,D] [A,C]2 [A,C]2 | [=G,B,]3 [G,B,] [F,A,]2 F,2 | [E,D]3 [E,D] [E,F]2 (ED) | %16
 (D4 C4) | [D,B,]2 [D,B,]>[D,C] [D,D]2 [D,A,]A, | [D,B,]4 [D,D]3 [D,F,] | %19
 [B,,F,]2 [B,,F,]2 [A,,A,]3 [A,,G,] | [D,F,]6 z2 | [DF]4 [DF]2 [CF]2 | [B,E]4 [E,D]3 [E,D] | %23
 (D2 CB,) C4 | [D,D]8 |] %25
V:4
 x2 | x8 | x2 D,2 x4 | x6 A,,2 | x8 | x8 | x8 | x8 | D,6 F,2 | x8 | x6 F,2 | x8 | x6 F,2 | x8 | %14
 x6 F,2 | x6 E,2 | A,8 | x8 | x8 | x8 | x8 | x8 | x8 | A,8 | x8 |] %25

